X:1
T:Kington, CM
T:Kington, CM
T:Frank Llewellyn Edwards (1873-1956)
T:Public Domain Courtesy of the Cyber Hymnal™
C:Frank Llewellyn Edwards (1873-1956)
Z:Public Domain
Z:Courtesy of the Cyber Hymnal™
%%score ( 1 2 ) ( 3 4 )
L:1/8
Q:1/4=112
M:4/4
K:E
V:1 treble 
V:2 treble 
V:3 bass 
V:4 bass 
V:1
 [EG]2 | [CE]2 [DF]2 [EG]2 [EB]2 | c2 ([GB][EG]) [FB]2 [DF]2 | G2 A2 G2 (FE) | [DF]6 [EG]2 | %5
 [Ec]2 [Ec]2 [FB]2 [Ee]2 | [EA]2 (AB) [EG]2 [DG]2 | [CF]2 [A,C]4 [A,D]2 | [G,E]6 |] %9
V:2
 x2 | x8 | (EF) x6 | E4 (ED) C2 | x8 | x8 | x2 D2 x4 | x8 | x6 |] %9
V:3
 [E,B,]2 | A,2 [F,A,]2 [E,B,]2 (ED) | (CD) E2 [B,D]2 B,2 | [E,B,]2 [A,,C]2 [E,B,]2 [F,^A,]2 | %4
 [B,,B,]6 [E,B,]2 | [A,,A,]2 [A,C]2 (DC) [G,B,]2 | [F,C]2 [B,,B,]2 [E,B,]2 [G,,B,]2 | %7
 [A,,A,]4 G,2 F,2 | [E,,E,]6 |] %9
V:4
 x2 | (A,G,) x3 G,2 x | A,2 (G,C) x B,2 x | x8 | x8 | x4 A,2 x2 | x8 | x4 B,,4 | x6 |] %9

